media/img/firefox/nothing-personal/grid-background.svg

<svg width="1280" height="1753" fill="none" xmlns="http://www.w3.org/2000/svg"><path d="M2971.55 724.02h-4801.81m4801.81 17.496h-4801.81m4801.81 20.178-4801.81-.001m4801.81 23.485h-4801.81m4801.81 27.315-4801.81-.001m4801.81 32.232-4801.81-.001m4801.81 38.548-4801.81-.001m4801.81 46.969-4801.81-.001m4801.81 58.455-4801.81-.002m4801.81 74.669h-4801.81m4801.81 98.91-4801.81-.01m4801.81 136.86h-4801.81m6859.7 202.34h-8634.15M127.052 724.02l-1671.932 939.4m1732.074-939.4-1510.144 969.62M247.336 724.02-1113.12 1743.11M307.474 723.781-826.239 1743.11M367.61 724.016-575.072 1783.24M427.757 723.781-259.145 1753.11M487.879 723.781-21 1863M548.036 724.02 233 2107M608.168 724.02l.001 1354.98m60.134-1354.98L971 2089M728.459 724.02 1315 1991M788.594 724.02l748.916 1122m-688.782-1122 943.322 1059.95M908.884 724.02 2053.72 1753.11M969.018 724.02l1294.402 969.62M1029.15 724.02l1510.15 969.62M1089.31 724.02l1685.7 947.15M1149.44 724.016l1557.1 777.444M1209.58 724.016l1730.07 777.434M1269.71 724.016l1903.05 777.444M66.913 724.016-1490.82 1501.45M6.76 724.016l-1730.71 777.444m5860.93-202.34h-5967.24M187.186 11.482l-.001 712.532m60.157-712.532v712.532m60.134-712.532v712.532m60.133-712.532v712.533m60.158-712.533v712.532m60.111-712.037v712.039m60.156-712.534v712.532m60.134-712.532v712.533m60.135-712.533v712.532m60.156-712.532v712.533m60.135-712.533v712.532m60.134-712.532v712.533m60.156-712.533v712.533m60.134-712.533v712.536m60.132-712.536v712.536m60.16-709.584v709.584m60.13-709.584v709.583m60.14-709.583v709.584m60.13-709.584v709.583M6.76 14.434v709.584M66.917 14.434v709.584m60.134-709.584V724.02M-639.88 241.559H1844M-639.88 301.82h2483.87M-639.88 181.559H1844m-2483.88 180.48h2484.47M-639.88 61.008H1844m-2483.88 60.248h2483.87M-639.88 1H1844M-637.27 422.273h2481.85m-2484.224 60.231H1844.59m-2484.47 60.23H1844m-2483.644 60.204H1843.99m-2483.87 60.255h2484.47" stroke="#4F4F4F" stroke-miterlimit="10"/></svg>

<svg width="1280" height="1753" fill="none" xmlns="http://www.w3.org/2000/svg"><path d="M2971.55 724.02h-4801.81M2971.55 741.516h-4801.81M2971.55 761.694l-4801.81-.001M2971.55 785.178h-4801.81M2971.55 812.493l-4801.81-.001M2971.55 844.724l-4801.81-.001M2971.55 883.271l-4801.81-.001M2971.55 930.239l-4801.81-.001M2971.55 988.693l-4801.81-.002M2971.55 1063.36h-4801.81M2971.55 1162.27l-4801.81-.01M2971.55 1299.12h-4801.81M5029.44 1501.46h-8634.15M127.052 724.02l-1671.932 939.4M187.194 724.02l-1510.144 969.62M247.336 724.02-1113.12 1743.11M307.474 723.781-826.239 1743.11M367.61 724.016-575.072 1783.24M427.757 723.781-259.145 1753.11M487.879 723.781-21 1863M548.036 724.02 233 2107M608.168 724.02l.001 1354.98M668.303 724.02 971 2089M728.459 724.02 1315 1991M788.594 724.02l748.916 1122M848.728 724.02l943.322 1059.95M908.884 724.02 2053.72 1753.11M969.018 724.02l1294.402 969.62M1029.15 724.02l1510.15 969.62M1089.31 724.02l1685.7 947.15M1149.44 724.016l1557.1 777.444M1209.58 724.016l1730.07 777.434M1269.71 724.016l1903.05 777.444M66.913 724.016-1490.82 1501.45M6.76 724.016l-1730.71 777.444M4136.98 1299.12h-5967.24M187.186 11.482l-.001 712.532M247.342 11.482v712.532M307.476 11.482v712.532M367.609 11.482v712.533M427.767 11.482v712.532M487.878 11.977v712.039M548.034 11.482v712.532M608.168 11.482v712.533M668.303 11.482v712.532M728.459 11.482v712.533M788.594 11.482v712.532M848.728 11.482v712.533M908.884 11.482v712.533M969.018 11.482v712.536M1029.15 11.482v712.536M1089.31 14.434v709.584M1149.44 14.434v709.583M1209.58 14.434v709.584M1269.71 14.434v709.583M6.76 14.434v709.584M66.917 14.434v709.584M127.051 14.434V724.02M-639.88 241.559H1844M-639.88 301.82h2483.87M-639.88 181.559H1844M-639.88 362.039h2484.47M-639.88 61.008H1844M-639.88 121.256h2483.87M-639.88 1H1844M-637.27 422.273h2481.85M-639.644 482.504H1844.59M-639.88 542.734H1844M-639.644 602.938H1843.99M-639.88 663.193h2484.47" stroke="#5B5B5B" stroke-width="2" stroke-miterlimit="10"/></svg>
